X:4535
T:Pols etter Per Tevik
L:1/16
M:9/16
O:Sweden
R:Pols
Z:Carol Turner
%%TUNEURL: http://www.leeds.ac.uk/music/Info/RRTuneBk/gettune/00000d0a.html
%%ID:00000d0a
K:D
|: "D"F3 DF2 D2F | "A7"F2E CE2 C2E | \
ABc def e2c |1 "D"d2A GF2 E2D :|2 "D"d3 d6 ::
|: "D"{g}a3 fa2 f2a | "A7"g2f efg efg \
|1 "D"f2e dc2 d2f | "A7"ece dcB A3 \
:|2 "D"f2e dc2 "A7"d2f | ece "D"d6 :|
